X:1
T:3 Lieder, Op.8
T:In die Ferne
T:Frau Caroline von Hoesslin (geb: v. Eichthal) achtungsvoll gewidmet 
T:2. In die Ferne
T:Josephine Lang
T:Hermann Kletke
T:3 Lieder, Op.8
T:Creative Commons copyright waiver (CC0 1.0 Universal)
T:Creative Commons copyright waiver (CC0 1.0 Universal)
T:Creative Commons copyright waiver (CC0 1.0 Universal)
T:Creative Commons copyright waiver (CC0 1.0 Universal)
T:Creative Commons copyright waiver (CC0 1.0 Universal)
C:Josephine Lang
Z:Hermann Kletke
Z:Creative Commons copyright waiver (CC0 1.0 Universal)
L:1/8
Q:1/4=116
M:3/4
K:C
V:1 treble nm="Singstimme\nVoice"
V:1
"^Allegro moderato" z6 | z6 | z6 | z6 | z6 | z6 | z6 | z6 | E2 E2 E2 | E2 E z E2 | A4 A2 | c4 z2 | %12
w: ||||||||Siehst du am|A- bend die|Wol- ken|zieh'n,|
 c2 A2 d2 | G2 E2 A2 | A2 F2 E2 | D4 z D | D3 D D2 | ^D2 A z z A | A2 A2 B2 | c2 z2 c2 | e2 d2 c2 | %21
w: siehst du die|Spit- zen der|Ber- * ge|glüh'n, mit|e- wi- gem|Schnee * die|Gip- fel um-|glänzt mit|grü- nen- den|
 B2 A2 z E | G2 ^F z B2 | G4 z2 | f z d2 A2 | F4 E2 | E2 D2 C2 | C4 (B,2 | C) z E2 G2 | c3 C C2 | %30
w: Wäl- dern, die|Tä- ler um-|grenzt.|Ach! in die|Fer- ne|sehnt sich mein|Herz _|ach! in die|Fer- * ne,|
 C2 F2 _A2 | c6 | c z c3 c | f4 e2 | d2 c2 B2 | (A2 G4) | (A6 | c6) | D6 | G6 | C6- | C6- | C6 | %43
w: sehnt sich mein|Herz,|ach, in die|Fer- ne|sehnt sich mein|Herz *|sehnt|_|sich|mein|Herz!|_||
 z6 | z6 | z6 | z6 | z6 | z6 | E z E2 E2 | E2 E2 z E | A4 A2 | c6 | c2 A2 (d2 | G2) E2 z A | %55
w: ||||||Ach! in den|Wäl- dern so|e- wig|grün|kann still und|heim- lich die|
 (A2 F2) (E2 | D4) z D | D4 D2 | (^D2 A2) z A | A4 B2 | c2 z2 c2 | e2 d2 c2 | B2 A2 (E2 | %63
w: Lie- * be|glühn der|Mor- gen|sieht sie, der|A- bend-|schein und|Lieb ist mit|Lie- be so|
 G2) ^F z (B2 | G6) | (f z d3 A) | F4 E2 | (E2 D2) z C | (C4 B,) z | (C2 E2 G2 | (c3 C) C2) | %71
w: se- lig al-|lein,|ach! in die|Fer- ne|sehnt sich mein|Herz, _|ach, in die|Fer- * ne|
 C2 F2 _A2 | c6 | c z c3 c | f4 e2 | d2 c2 B2 | (A2 G4) | (A6 | c6 | !turn!D6) |{/A} (G6 | C6-) | %82
w: sehnt sich mein|Herz,|ach, in die|Fer- ne|sehnt sich mein|Herz _|sehnt|_|sich|mein|Herz!|
 C6- | C4 z2 | z6 | z6 | z6 | z6 | z6 | z6 | E z (E2 E2 | E2 E2) (EA | A4 A2 | c6 | c2) A2 (d2 | %95
w: _||||||||O könnt' ich|zie- hen im *|Mor- gen-|rot,|o, hauch- te|
 G2) E2 A2 | (A2 F2) E2 | D2 z2 z D | D2 D2 z D | ^D2 A2 z A | A4 B2 | c6 | e2 d3 c | B2 A z E2 | %104
w: A- bend mir|Lie- * bes-|tod es|schwin- det das|Le- ben, du|weisst es|kaum,|o ew'- ge|Lie- be, o|
 G2 ^F2 B2 | G6 | f z d3 A | F4 E2 | (E2 D3 C) | (C4 B,2) | C z E3 G | (c3 C) C2 | C2 F2 _A2 | c6 | %114
w: e- wi- ger|Traum!|Ach! in die|Fer- ne|sehnt sich mein|Herz, _|ach, in die|Fer- * ne|sehnt sich mein|Herz,|
 c z c3 c | f4 e2 | d2 c2 B2 | (A2 G4) | (A6 | c6) | D6 | G6 | C6- | C6 | z6 | z6 | z6 | z6 | z6 | %129
w: ach! in die|Fer- ne|sehnt sich mein|Herz *|sehnt|_|sich|mein|Herz.|_||||||
 z6 |] %130
w: |

